X:602
T:Polska
T:"Aldrig nånsin må du dej inbilla"
C:Trad
R:Polska
Z:Patrik Månsson, 2008-10-03
B:Omtyckta Skånska Allspelslåtar
O:Skåne
M:3/4
L:1/8
K:D
|: D>F A2 d2 | (f>d) (dA) AA | B>B G3 B | (BA) (AG) FF :|
w:Ald-rig nån-sin må du dej in-bil-la att du får mitt ung-a hjär-ta lil-la.
|: D>(D E)>(E F)>F | G>G (3FGF E2 :| |: A2 (B>c) dB | (A>G) F>E D2 :|
w:Du må hop-pa, skut-ta rätt så myc-ket du vill. Mitt ung-a hjär-ta hör en an-nan till!
(:musicend:)

(:music:)
